X:1
T:Somebody Came and Lifted Me
T:Somebody Came and Lifted Me
T:Robert Harkness
T:Frederick Pitman Morris, 1907
T:Public Domain Courtesy of the Cyber Hymnal™
C:Robert Harkness
Z:Public Domain
Z:Courtesy of the Cyber Hymnal™
%%score ( 1 2 ) ( 3 4 )
L:1/8
Q:1/4=110
M:9/8
K:Db
V:1 treble 
V:2 treble 
V:3 bass 
V:4 bass 
V:1
 [DF][EG][=E=G] | [GB]3- [GB]2 [FA] [Gc]2 [EG] | [EG]6 [CE][DF][EG] | %3
w: 1.~Some- bo- dy|came * and lift- ed|me Out of my|
w: 2.~Some- bo- dy|bent * so ten- der-|ly, Plead- ing so|
w: 3.~Some- bo- dy|whis- * pered sweet and|low, Tell- ing me|
w: 4.~Some- bo- dy|holds * my hand each|day, Guid- ing my|
 [GB]3- [GB]2 [Gc] [FB]2 [DF] | [DF]6 F[F=G][F=A] | [Fc]3- [Fc]2 F [Fd][Fd][Ec] | %6
w: sin * and mis- e-|ry Some- bo- dy|came, * O who could it|
w: long * and pa- tient-|ly, Some- bo- dy|came, * O who could it|
w: just * the way to|go, Some- bo- dy|spoke, * I list- ened, and|
w: feet * lest I should|stray, Walk- ing with|Him * how bless- èd the|
 [DB]6 [=Ge][GB][Gd] | [Ac-]3 [Ec]2 [CA] [DB]3 | [CA]6 ||"^Refrain" ABc | [Fd]3- [Fd]2 e dcB | %11
w: be, Who could it|be but Je- sus?||||
w: be, Who could it|be but Je- sus?|Who|could it be,|O * who could it be?|
w: lo, Who could it|be but Je- sus?||||
w: way, Who could it|be but Je- sus?||||
 [GA]6 [CE][DF][EG] | [GB]3- [GB]2 [Gc] [GB]3 | [FA]6 ABc | [Fd]3- [Fd]2 =d fe_d | %15
w: ||||
w: Who could it be|but * Je- sus?|Who could it be,|O * who could it be?|
w: ||||
w: ||||
 [GB]3- [GB]2 z"^rall." [Gd][GB][=Ed] | [FA]3- !fermata![FA] z !fermata!D E3 | D6 |] %18
w: |||
w: Who * could it be|but * Je- sus?||
w: |||
w: |||
V:2
 x3 | x9 | x9 | x9 | x6 F x2 | x5 F x3 | x9 | x9 | x6 || F3 | x6 G3 | x9 | x9 | x6 F3 | x6 G3 | %15
 x9 | x5 D (D2 C) | D6 |] %18
V:3
 z3 | D,3 D3 A,3 | A,,3 A,3 z3 | A,,3 A,3 D3 | [D,A,]3 D,,3 z3 | %5
 [C,=A,-]3 [F,,A,]3 [B,,F,][B,,F,][F,A,] | B,3 B,,3 [E,B,][E,E][E,B,] | %7
 [E,-E]3 [E,A,]2 [E,A,] [E,=G,]3 | [A,,E,]3 [A,,A,]3 || [D,A,]3 | [D,A,-]3 [F,A,]2 [F,B,] [E,B,]3 | %11
 [A,C]6 A,A,A, | [A,C]3- [A,C]2 [A,E] [D,D]3 | [D,D]6 [D,A,]3 | [D,A,-]3 [F,A,]2 [F,B,] [E,B,]3 | %15
 [E,E]3- [E,E]2 z [G,D][G,D][=G,B,] | [A,D-]3 [A,,D] z [A,,F,] ([B,,=G,]2 [A,,_G,]) | [D,F,]6 |] %18
V:4
 x3 | x9 | x9 | x9 | x9 | x9 | x9 | x9 | x6 || x3 | x9 | x6 A,A,A, | x9 | x9 | x9 | x9 | x9 | x6 |] %18

